!!! OTL: Berkowitz322
!!! Chapter: 1
!!! Section: III
!!! Page: 78
!!! Mode: 
!!! Encoder: DJB
**kern
*staff1
*I"Piano
=1-
*clefG2
*k[b-]
*F:
*met(c|)
*M2/2
4r
4r
4r
4c/
=2
[2f/
8f/L]
8g/
8a/
8f/J
=3
4f#/
4g/
4r
4c/
=4
[2g/
8g/L]
8a/
8b-/
8g/J
=5
4a/
4r
4dd\
4cc\
=6
4.bn\
8cc\
4dd\
4b\
=7
8cc/L
8g/J
[4e/
4e/]
8d/L
8e/J
=8
4f/
4g/
4a/
4bn\
=9
!!linebreak:original
2cc\
4r
4cc#\
=10
4.dd\
8b-\
4g/
8a/L
8b-/J
=11
4bn\
4cc\
4a/
4f/
=12
4d/
[4b-\
8b-/L]
8a/
8g/
8f/J
=13
2f/
4e/
4c/
=14
[2cc\
8cc/L]
8b-/
8a/
8g/J
=15
4f#/
4g/
4b-\
4dd\
=16
4.cc\
8a/
4b-\
4a/
=17
!!linebreak:original
2g/
4f/
4r
==
*-
